X: 14426
T: Galway Rambler, The
R: reel
M: 4/4
K: Gmajor
(3DEF||G2dG eGdG|G2dB AGEF|G2DG BABd|gedB AGEF|
G2dG eGdG|dedB AGEF|G2DG BABd|gedB AGEF||
g2bg agab|g2bg agef|g2bg agab|gedB AGE2|
gabg gabg|gabg abga|b~g3 gaba|gedB AGEF||

